packages/icons/src/svg/20/article_box_outline_20.svg

<?xml version="1.0" encoding="UTF-8"?>
<svg width="20px" height="20px" viewBox="0 0 20 20" version="1.1" xmlns="http://www.w3.org/2000/svg" xmlns:xlink="http://www.w3.org/1999/xlink">
    <!-- Generator: Sketch 56 (81588) - https://sketch.com -->
    <title>article_box_outline_20</title>
    <desc>Created with Sketch.</desc>
    <g id="Page-2" stroke="none" stroke-width="1" fill="none" fill-rule="evenodd">
        <g id="article_box_outline_20" fill-rule="nonzero">
            <rect id="Shape" opacity="0.527120536" x="0" y="0" width="20" height="20"></rect>
            <path d="M6.91631345,2 L13.0836866,2 C14.5177371,2 15.2156592,2.13477497 15.9410734,2.52273075 C16.6014044,2.87587962 17.1241204,3.3985956 17.4772693,4.05892659 C17.865225,4.78434081 18,5.4822629 18,6.91631345 L18,13.0836866 C18,14.5177371 17.865225,15.2156592 17.4772693,15.9410734 C17.1241204,16.6014044 16.6014044,17.1241204 15.9410734,17.4772693 C15.2156592,17.865225 14.5177371,18 13.0836866,18 L6.91631345,18 C5.4822629,18 4.78434081,17.865225 4.05892659,17.4772693 C3.3985956,17.1241204 2.87587962,16.6014044 2.52273075,15.9410734 C2.13477497,15.2156592 2,14.5177371 2,13.0836866 L2,6.91631345 C2,5.4822629 2.13477497,4.78434081 2.52273075,4.05892659 C2.87587962,3.3985956 3.3985956,2.87587962 4.05892659,2.52273075 C4.78434081,2.13477497 5.4822629,2 6.91631345,2 Z M6.91631345,3.5 C5.70870997,3.5 5.2447242,3.58959978 4.76632488,3.84545054 C4.3673966,4.05879972 4.05879972,4.3673966 3.84545054,4.76632488 C3.58959978,5.2447242 3.5,5.70870997 3.5,6.91631345 L3.5,13.0836866 C3.5,14.29129 3.58959978,14.7552758 3.84545054,15.2336751 C4.05879972,15.6326034 4.3673966,15.9412003 4.76632488,16.1545495 C5.2447242,16.4104002 5.70870997,16.5 6.91631345,16.5 L13.0836866,16.5 C14.29129,16.5 14.7552758,16.4104002 15.2336751,16.1545495 C15.6326034,15.9412003 15.9412003,15.6326034 16.1545495,15.2336751 C16.4104002,14.7552758 16.5,14.29129 16.5,13.0836866 L16.5,6.91631345 C16.5,5.70870997 16.4104002,5.2447242 16.1545495,4.76632488 C15.9412003,4.3673966 15.6326034,4.05879972 15.2336751,3.84545054 C14.7552758,3.58959978 14.29129,3.5 13.0836866,3.5 L6.91631345,3.5 Z M6.75,6 L13.25,6 C13.6642136,6 14,6.33578644 14,6.75 C14,7.16421356 13.6642136,7.5 13.25,7.5 L6.75,7.5 C6.33578644,7.5 6,7.16421356 6,6.75 C6,6.33578644 6.33578644,6 6.75,6 Z M6.75,9.25 L13.25,9.25 C13.6642136,9.25 14,9.58578644 14,10 C14,10.4142136 13.6642136,10.75 13.25,10.75 L6.75,10.75 C6.33578644,10.75 6,10.4142136 6,10 C6,9.58578644 6.33578644,9.25 6.75,9.25 Z M6.75,12.5 L11.25,12.5 C11.6642136,12.5 12,12.8357864 12,13.25 C12,13.6642136 11.6642136,14 11.25,14 L6.75,14 C6.33578644,14 6,13.6642136 6,13.25 C6,12.8357864 6.33578644,12.5 6.75,12.5 Z" id="↳-Icon-Color" fill="currentColor"></path>
        </g>
    </g>
</svg>

<svg width="20" height="20" viewBox="0 0 20 20" xmlns="http://www.w3.org/2000/svg"><path d="M6.91631 2h6.16738c1.43405 0 2.13197.13477 2.85738.52273.66033.35315 1.18305.87587 1.5362 1.5362C17.86522 4.78434 18 5.48226 18 6.9163v6.16738c0 1.43405-.13478 2.13197-.52273 2.85738-.35315.66033-.87587 1.18305-1.5362 1.5362-.72541.38795-1.42333.52273-2.85738.52273H6.9163c-1.43405 0-2.13197-.13478-2.85738-.52273-.66033-.35315-1.18305-.87587-1.5362-1.5362C2.13477 15.21566 2 14.51774 2 13.0837V6.9163c0-1.43405.13477-2.13197.52273-2.85738.35315-.66033.87587-1.18305 1.5362-1.5362C4.78434 2.13477 5.48226 2 6.9163 2zm0 1.5c-1.2076 0-1.67159.0896-2.14999.34545-.39892.21335-.70752.52195-.92087.92087-.25585.4784-.34545.94239-.34545 2.15v6.16737c0 1.2076.0896 1.67159.34545 2.14999.21335.39892.52195.70752.92087.92087.4784.25585.94239.34545 2.15.34545h6.16737c1.2076 0 1.67159-.0896 2.14999-.34545.39892-.21335.70752-.52195.92087-.92087.25585-.4784.34545-.94239.34545-2.15V6.91632c0-1.2076-.0896-1.67159-.34545-2.14999-.21335-.39892-.52195-.70752-.92087-.92087-.4784-.25585-.94239-.34545-2.15-.34545H6.91632zM6.75 6h6.5c.41421 0 .75.33579.75.75s-.33579.75-.75.75h-6.5c-.41421 0-.75-.33579-.75-.75S6.33579 6 6.75 6zm0 3.25h6.5c.41421 0 .75.33579.75.75s-.33579.75-.75.75h-6.5c-.41421 0-.75-.33579-.75-.75s.33579-.75.75-.75zm0 3.25h4.5c.41421 0 .75.33579.75.75s-.33579.75-.75.75h-4.5c-.41421 0-.75-.33579-.75-.75s.33579-.75.75-.75z"/></svg>
